X: 28041
T: Mowsy Draggie
R: reel
M: 4/4
K: Eminor
|:"Em"e2Be GeBe|"Em"e2Be "D"Adfd|"Em"e2Be GeBe|"Em"dedB "D" AFAd|
"Em"e2Be GeBe|"Em"e2Be "D"Adfd|"Em"e2Be GeBe|1 "Em"gedB "D"AFAd:|2 "Em"gedB "D"Adfd||
|:"D"B2GB "A7"^c2FA|"D"GFED "A7"GBA^c|"D"B2GB "A" A2FA|"G"dedB "D"AFAd|
"D"B2GB "A7"^c2FA|"D"GFED "A7"GBA^c|"D"GB "a"A^c "Bm"Bd "c#"^ce|
[1 "G"dedB "D"AF Ad:|2 "G"dedB "D"Adfd||

